!!!OTL: 1740. Spiel mit Strichemachen.
!!!ARE: Europa, Mitteleuropa, Deutschland, Neustadt a.d. Dosse
!!!SCT: E1740
!!!TXL: @@DE
!!!YEM: Copyright 1995, estate of Helmut Schaffrath.
**kern	**text
*ICvox	*
!! Mixed meters:  2/4; 3/4
*M2/4	*
*k[f#]	*
*G:	*
{8d	Der
=1	=1
8g	Kuk-
8g	-kuk
8a	auf
8a	dem
=2	=2
4b	Ʒau-
4dd}	-ne
=3||	=3||
*M3/4	*
{8.a	[Ʒe-
16b/	-te-
8a	-rum
8g	pom
8f#	pe-
8g	-ter
=4	=4
*M2/4	*
8.a	du-
16f#	-de-
8d}	-wich],
{8d	der
=5	=5
8g	Kuk-
8g	-kuk
8a	auf
8a	dem
=6	=6
4b	Ʒau-
4dd	-ne
=7	=7
4g	ſaß.
8r}	.
==	==
!!!AGN: Scherz -, Spiel - Lied
!!!ONB: ESAC (Essen Associative Code) Database: ERK3
!!!AMT: irregular
!!!AIN: vox
!!!EED: Helmut Schaffrath
!!!EEV: 1.0
!!!GTL: Scherz-, Spiel- und Spottlieder.
!!!URL-scan: https://rosdok.uni-rostock.de/mcrviewer/recordIdentifier/rosdok_ppn745177999/iview2/phys_0531.iview2?x=-449.8344612962892&y=277.5128594492562&scale=0.47549036216460333&rotation=0&layout=singlePageLayout
!!!ENC: Anna Maria Matuszewska
!!!EEV: 2025/08/01
*-	*-
